assets/resource-logos/mymodivcare.svg

<svg width="308" height="115" viewBox="0 0 308 115" fill="none" xmlns="http://www.w3.org/2000/svg">
<path fill-rule="evenodd" clip-rule="evenodd" d="M26.3584 115H59.4836V0H26.3584V115Z" fill="#246198"/>
<path fill-rule="evenodd" clip-rule="evenodd" d="M70.022 115H122.414V0H70.022V115Z" fill="#001E30"/>
<path fill-rule="evenodd" clip-rule="evenodd" d="M0 115H15.8191V0H0V115Z" fill="#1E9EE7"/>
<path fill-rule="evenodd" clip-rule="evenodd" d="M172.25 67.8524V58.1408C172.25 55.4006 171.192 53.7819 169.106 53.7819C167.706 53.7819 165.495 54.4357 165.495 58.389V67.8524H161.355V58.1408C161.355 55.5571 160.204 53.7819 157.931 53.7819C155.721 53.7819 154.6 55.183 154.6 59.0428V67.8524H150.46V50.5759H154.258V52.039H154.32C155.161 50.7009 156.81 49.9841 158.834 49.9841C160.92 49.9841 162.694 50.95 163.815 52.6928C165.215 50.7314 167.052 49.9841 169.387 49.9841C173.059 49.9841 176.391 52.1641 176.391 57.4555V67.8524H172.25ZM178.199 59.2299C178.199 54.2495 182.215 49.9841 187.413 49.9841C192.643 49.9841 196.565 54.1875 196.565 59.1678C196.565 64.3352 192.705 68.4127 187.413 68.4127C182.34 68.4127 178.199 64.2102 178.199 59.2299ZM192.424 59.2614C192.424 56.4286 190.308 53.7819 187.382 53.7819C184.612 53.7819 182.339 56.335 182.339 59.2299C182.339 62.1247 184.456 64.6149 187.413 64.6149C190.34 64.6149 192.424 62.1247 192.424 59.2614ZM212.163 67.8524V65.7354H212.1C210.98 67.4792 208.863 68.4126 206.59 68.4126C201.766 68.4126 197.782 64.3658 197.782 59.2298C197.782 53.7513 202.108 49.9841 206.684 49.9841C208.77 49.9841 210.296 50.5758 211.821 52.101V44.0693H215.96V67.8524H212.163ZM212.132 59.1984C212.132 56.335 209.922 53.7819 206.996 53.7819C204.381 53.7819 201.921 56.21 201.921 59.0743C201.921 62.1247 204.163 64.6149 207.027 64.6149C209.829 64.6149 212.132 62.1562 212.132 59.1984ZM219.543 67.8524H223.683V50.5759H219.543V67.8524ZM259.919 62.2183C258.456 66.1716 255.219 68.4127 251.265 68.4127C246.16 68.4127 242.083 64.2102 242.083 59.1363C242.083 54.156 246.16 49.9841 251.234 49.9841C255.125 49.9841 258.58 52.3196 259.919 56.3035H255.249C254.347 54.6848 253.133 53.7819 251.234 53.7819C248.309 53.7819 246.223 56.1164 246.223 59.1984C246.223 62.2803 248.464 64.6149 251.421 64.6149C253.133 64.6149 254.378 63.6184 255.249 62.2183H259.919ZM275.517 67.8524V65.7049C274.147 67.3236 271.594 68.4127 269.447 68.4127C264.591 68.4127 261.073 64.3352 261.073 59.1048C261.073 54.094 264.716 49.9841 269.727 49.9841C272.156 49.9841 274.552 51.4167 275.455 52.7549H275.517V50.5759H279.315V67.8524H275.517ZM275.392 59.1678C275.392 56.1479 273.306 53.7819 270.318 53.7819C267.423 53.7819 265.214 56.21 265.214 59.2919C265.214 62.1868 267.423 64.6149 270.35 64.6149C273.369 64.6149 275.392 62.1247 275.392 59.1678ZM282.118 67.8524V50.5759H285.916V52.1011H285.978C287.068 50.4823 287.971 49.9841 289.931 49.9841H290.025V54.0004C287.534 54.094 286.258 55.4321 286.258 58.0158V67.8524H282.118ZM293.979 61.0662C294.291 62.5914 296.19 64.6149 298.742 64.6149C300.454 64.6149 301.887 63.9305 302.727 62.4044H307.085C305.964 65.891 302.416 68.4127 298.742 68.4127C293.544 68.4127 289.621 64.3658 289.621 59.2614C289.621 54.156 293.45 49.9841 298.711 49.9841C303.723 49.9841 307.645 53.9384 307.645 58.9808C307.645 59.6346 307.552 60.3199 307.396 61.0662H293.979ZM303.411 57.7362C303.006 55.245 301.295 53.7819 298.711 53.7819C296.438 53.7819 294.509 55.0895 293.855 57.7362H303.411ZM221.613 44.0693C220.442 44.0693 219.494 45.0171 219.494 46.1882C219.494 47.3584 220.442 48.3061 221.613 48.3061C222.783 48.3061 223.731 47.3584 223.731 46.1882C223.731 45.0171 222.783 44.0693 221.613 44.0693ZM237.831 50.5759L234.044 58.8634L230.257 50.5759H225.364L233.923 68.4126L242.755 50.5759H237.831Z" fill="#0A0B09"/>
</svg>

<svg xmlns="http://www.w3.org/2000/svg" fill="none" viewBox="0 0 308 115">
  <path fill="#246198" fill-rule="evenodd" d="M26.358 115h33.126V0H26.358v115Z" clip-rule="evenodd"/>
  <path fill="#001E30" fill-rule="evenodd" d="M70.022 115h52.392V0H70.022v115Z" clip-rule="evenodd"/>
  <path fill="#1E9EE7" fill-rule="evenodd" d="M0 115h15.82V0H0v115Z" clip-rule="evenodd"/>
  <path fill="#0A0B09" fill-rule="evenodd" d="M172.25 67.852v-9.711c0-2.74-1.058-4.36-3.144-4.36-1.4 0-3.611.655-3.611 4.608v9.463h-4.14v-9.711c0-2.584-1.151-4.36-3.424-4.36-2.21 0-3.331 1.402-3.331 5.262v8.81h-4.14V50.575h3.798v1.463h.062c.841-1.338 2.49-2.055 4.514-2.055 2.086 0 3.86.966 4.981 2.709 1.4-1.962 3.237-2.709 5.572-2.709 3.672 0 7.004 2.18 7.004 7.471v10.397h-4.141Zm5.949-8.622c0-4.98 4.016-9.246 9.214-9.246 5.23 0 9.152 4.203 9.152 9.184 0 5.167-3.86 9.245-9.152 9.245-5.073 0-9.214-4.203-9.214-9.183Zm14.225.031c0-2.832-2.116-5.48-5.042-5.48-2.77 0-5.043 2.554-5.043 5.449s2.117 5.385 5.074 5.385c2.927 0 5.011-2.49 5.011-5.354Zm19.739 8.591v-2.117h-.063c-1.12 1.744-3.237 2.678-5.51 2.678-4.824 0-8.808-4.047-8.808-9.183 0-5.479 4.326-9.246 8.902-9.246 2.086 0 3.612.592 5.137 2.117v-8.032h4.139v23.783h-3.797Zm-.031-8.654c0-2.863-2.21-5.416-5.136-5.416-2.615 0-5.075 2.428-5.075 5.292 0 3.05 2.242 5.54 5.106 5.54 2.802 0 5.105-2.458 5.105-5.416Zm7.411 8.654h4.14V50.576h-4.14v17.276Zm40.376-5.634c-1.463 3.954-4.7 6.195-8.654 6.195-5.105 0-9.182-4.203-9.182-9.277 0-4.98 4.077-9.152 9.151-9.152 3.891 0 7.346 2.336 8.685 6.32h-4.67c-.902-1.62-2.116-2.522-4.015-2.522-2.925 0-5.011 2.334-5.011 5.416 0 3.082 2.241 5.417 5.198 5.417 1.712 0 2.957-.997 3.828-2.397h4.67Zm15.598 5.634v-2.147c-1.37 1.619-3.923 2.708-6.07 2.708-4.856 0-8.374-4.078-8.374-9.308 0-5.011 3.643-9.12 8.654-9.12 2.429 0 4.825 1.432 5.728 2.77h.062v-2.18h3.798v17.277h-3.798Zm-.125-8.684c0-3.02-2.086-5.386-5.074-5.386-2.895 0-5.104 2.428-5.104 5.51 0 2.895 2.209 5.323 5.136 5.323 3.019 0 5.042-2.49 5.042-5.447Zm6.726 8.684V50.576h3.798V52.1h.062c1.09-1.619 1.993-2.117 3.953-2.117h.094V54c-2.491.094-3.767 1.432-3.767 4.016v9.836h-4.14Zm11.861-6.786c.312 1.525 2.211 3.549 4.763 3.549 1.712 0 3.145-.684 3.985-2.21h4.358c-1.121 3.486-4.669 6.008-8.343 6.008-5.198 0-9.121-4.047-9.121-9.152 0-5.105 3.829-9.277 9.09-9.277 5.012 0 8.934 3.954 8.934 8.997 0 .654-.093 1.339-.249 2.085h-13.417Zm9.432-3.33c-.405-2.491-2.116-3.954-4.7-3.954-2.273 0-4.202 1.308-4.856 3.954h9.556ZM221.613 44.07a2.118 2.118 0 1 0-.002 4.236 2.118 2.118 0 0 0 .002-4.236Zm16.218 6.507-3.787 8.287-3.787-8.287h-4.893l8.559 17.837 8.832-17.837h-4.924Z" clip-rule="evenodd"/>
</svg>
